X: 28886
T: Mystery Jig, The
R: jig
M: 6/8
K: Edorian
e|edB BAF|AFE E2F|GFE dee|edB AB/c/d|
edB BAF|AFE E2F|GFE F/G/AD|FED E2:|
BEe def|edB d2B|ded d2B|ded B2A|
BEe def|edB def|gfe f/g/ad|fed e3||
BEe def|edB d2B|ded d2B|ded def|
gfe f/g/af|gfe def|gfe fdB|ABA A B/c/e||
gBB fBB|eBB d2B|Bcc cAE|Bcc cde|
gB fB eB|dBB e2B|cBA ~g3|age def||
gBB fBB|eBB d2B|Bcc cAE|Bcc cde|
gfe f/g/af|gfe def|gfe fdB|ABA A B/c/d:|

